X:1
T:C Major Daniel Read, 1785
T:Isaac Watts, 1706 ( Few Happy Matches ) 886. 886.
T:Holland No copyright. Transcribed from The American Singing-Book, 1786. 
%%score [ 1 2 3 4 ]
L:1/8
M:4/4
K:C
V:1 treble nm="Treble" snm="Tr."
V:2 treble nm="Counter" snm="C."
V:3 treble-8 nm="Tenor" snm="T."
V:4 bass nm="Bass" snm="B."
V:1
 c4 c2 B2 | c4 c4 | d2 e2 d4 | d4 c2 B2 | c4 c4 | c2 [Bd]2 [ce]4 | e4 e2 e2 | d4 d4 | d8 | z4 c4 | %10
 d2 g2 e4 | c4 B2 A2 | G4 d4 | (e2 c2) (d2 B2) | (c2 B2 c2) ce | G2 AB c4 | c4 (d4 | e2 f2 e2 d2 | %18
 c2) BA G2 c2 | B4 B4 | c8 |] %21
V:2
 E4 F2 D2 | E4 G4 | G2 G2 G4 | G4 G2 F2 | E4 A4 | G2 G2 G4 | G4 G2 G2 | ^F4 F4 | G8 | z4 G4 | %10
w: 1.~Say, migh- ty|love, and|teach my song,|To whom my|sweet- est|joys be- long,|And who the|hap- py|pairs,|Whose|
 G2 G2 G4 | G4 F2 E2 | D4 G4 | G4 ^F4 | G6 A2 | G2 F2 E4 | E4 G4- | G8- | G6 A2 | G4 G4 | E8 |] %21
w: yield- ing hearts|and join- ing|hands Find|bles- sings|twist- ed|with their bands,|To soft~\-~||* \-~en|all their|cares.|
V:3
 c4 A2 G2 | c4 e4 | d2 c2 d4 | d4 e2 f2 | g4 f4 | e2 d2 c4 | c4 G2 A2 | B4 A4 | G8 | z4 e4 | %10
 g2 B2 c4 | e4 d2 c2 | d4 G4 | (c2 e2) (d2 f2) | (e2 df e2) c2 | e2 f2 g4 | c4 (G2 A2 | %17
 B2 G2 c2 d2 | e2) f2 g2 f2 | e4 d4 | c8 |] %21
V:4
 C,4 F,2 G,2 | C,4 C4 | G,2 C,2 G,4 | G,4 E,2 D,2 | C,4 F,4 | G,2 G,2 C,4 | C,4 C,2 C,2 | D,4 D,4 | %8
w: ||||||||
 G,,8 | z4 C,4 | G,2 G,2 C,4 | C,4 D,2 E,F, | G,4 G,4 | C,4 D,4 | (E,2 G,2 C,2) F,2 | E,2 D,2 C,4 | %16
w: ||||||||
 C,4 G,2 F,2 | E,2 D,2 (C,2 B,,2 | C,2) D,2 E,2 F,2 | G,4 G,4 | C,8 |] %21
w: To soft- en|all their cares~ *|* To soft- en|all their|cares.|

